X:1
T:Laudate Pueri Dominum
T:Josquin des Prez edit BMarble
T:Psalm 113
T:Laudate Pueri Dominum
T:Copyright © 2015 by CPDL.  This edition can be fully distributed, duplicated, performed, and recorded. 
T:Copyright © 2015 by CPDL.  This edition can be fully distributed, duplicated, performed, and recorded. 
T:Copyright © 2015 by CPDL.  This edition can be fully distributed, duplicated, performed, and recorded. 
T:Copyright © 2015 by CPDL.  This edition can be fully distributed, duplicated, performed, and recorded. 
T:Copyright © 2015 by CPDL.  This edition can be fully distributed, duplicated, performed, and recorded. 
T:Copyright © 2015 by CPDL.  This edition can be fully distributed, duplicated, performed, and recorded. 
T:Copyright © 2015 by CPDL.  This edition can be fully distributed, duplicated, performed, and recorded. 
T:Copyright © 2015 by CPDL.  This edition can be fully distributed, duplicated, performed, and recorded. 
T:Copyright © 2015 by CPDL.  This edition can be fully distributed, duplicated, performed, and recorded. 
T:Copyright © 2015 by CPDL.  This edition can be fully distributed, duplicated, performed, and recorded. 
T:Copyright © 2015 by CPDL.  This edition can be fully distributed, duplicated, performed, and recorded. 
T:Copyright © 2015 by CPDL.  This edition can be fully distributed, duplicated, performed, and recorded. 
T:Copyright © 2015 by CPDL.  This edition can be fully distributed, duplicated, performed, and recorded. 
T:Copyright © 2015 by CPDL.  This edition can be fully distributed, duplicated, performed, and recorded. 
T:Copyright © 2015 by CPDL.  This edition can be fully distributed, duplicated, performed, and recorded. 
T:Copyright © 2015 by CPDL.  This edition can be fully distributed, duplicated, performed, and recorded. 
T:Copyright © 2015 by CPDL.  This edition can be fully distributed, duplicated, performed, and recorded. 
T:Copyright © 2015 by CPDL.  This edition can be fully distributed, duplicated, performed, and recorded. 
T:Copyright © 2015 by CPDL.  This edition can be fully distributed, duplicated, performed, and recorded. 
T:Copyright © 2015 by CPDL.  This edition can be fully distributed, duplicated, performed, and recorded. 
T:Copyright © 2015 by CPDL.  This edition can be fully distributed, duplicated, performed, and recorded. 
C:Josquin des Prez
C:edit BMarble
Z:Psalm 113
Z:Copyright © 2015 by CPDL.  This edition can be fully distributed, duplicated, performed, and recorded.
Z:
%%score [ 1 2 3 4 ]
L:1/8
Q:1/2=100
M:4/2
K:F
V:1 treble nm="SOPRANO" snm="S."
V:2 treble nm="ALTO" snm="A."
V:3 treble-8 transpose=-12 nm="TENOR" snm="T."
V:4 bass nm="BASS" snm="B."
V:1
 F16 | A8 c8- | c8 c4 c4- | c4 B2 A2 G6 G2 | A8 z4 A4- | A4 A4 A8 | B12 A4 | A8 z4 A4- | A4 A8 A4 | %9
w: Lau-|da- te|_ pu- e-|* ri _ Do- mi-|num, pu-|* e- ri|Do- mi-|num, lau-|* da- te|
 B8 B8 | A12 F4 | F16 | B8 A8 | G8 A4 A4 | A4 B8 A4 | G8 G8- | G8 z8 | A8 A4 A4 | %18
w: no- men|Do- mi-|ni.|Sit no-|men Do- mi-|ni be- ne-|di- ctum|_|ex hoc nunc|
 A4 A4 B2 A2 G2 F2 | A4 G6 F2 F4 | E4 F8 E4 | F8 z8 | B8 A4 F4 | G2 F2 E2 D2 C4 F4- | F4 E4 F8 | %25
w: et us- que _ _ _|in sae- cu- lum,|_ sae- cu-|lum.|A so- lis|or- * * * * *|* * tu|
 z4 A4 G4 A4 | B16 | A16- | A16 | z16 | z8 f8 | f4 f4 e4 d4- | d2 c2 c8 B2 A2 | B6 c2 A4 G4- | %34
w: et ad oc-|ca-|sum|_||lau-|da- bi- le no-|* * men _ _|Do- mi- ni, no-|
 G2 F2 F8 E2 D2 | E6 F2 D4 C4 | C8 z8 | z4 G8 F4 | F4 E4 F8- | F16- | F8 z4 c4 | c4 c4 A8 | B8 c8 | %43
w: * * men _ _|Do- * * mi-|ni,|no- men|Do- mi- ni.|_|* Ex-|cel- sus su-|per o-|
 c8 z8 | z8 c6 c2 | c4 c4 d8 | e8 c6 c2 | A8 z8 | z16 | B8 B4 B4 | A8 G8 | B6 B2 F4 A4- | %52
w: mnes|su- per|o- mnes gen-|tes Do- mi-|nus,||et su- per|cae- los|glo- ri- a, et|
 A4 A4 G6 F2 | F4 A8 G4- | G4 B8 B4 | A6 B2 c2 d2 e2 de | f6 ed c4 B4- | B2 c2 d8 c2 B2 | %58
w: _ su- per _|cae- * *|* * los|glo- * * * * * *|* ri- * a, glo-||
 A4 G4 F4 f4- | f4 e8 d4- | d4 c8 =B4 | c12 _B2 A2 | A8 z8 | A8 c8 | c4 c4 c4 d4 | c4 d8 c2 B2 | %66
w: * ri- a, glo-||* * ri-|a e- *|jus.|Quis si-|cut Do- mi- nus|De- * * *|
 A2 G2 B6 A2 A4- | A4 G4 A8- | A8 z8 | z16 | z16 | z16 | z16 | z8 c8- | c4 c4 d8 | e8 f8 | %76
w: * * * us no-|* * ster,|_|||||qui|_ in al-|tis ha-|
 f8 e4 c4- | c4 B2 A2 B2 A2 G2 F2 | E6 D2 F8 | c4 c4 A4 A4 | F6 G2 A2 B2 c4- | c4 =B4 c4 c4 | %82
w: bi- tat, ha-||* bi- tat|et hu- mi- li-|a _ _ _ _|_ _ re- spi-|
 c8 z4 c4 | c16 | A8 z4 d4- | d2 c2 B8 A2 G2 | A12 G2 F2 | F16 | z16 | z16 | z8 F8 | G8 A8 | %92
w: cit in|cae-|lo et|_ _ _ in _|ter- * *|ra?|||Su-|sci- tans|
 A6 G2 A4 B4- | B2 A2 A8 G4 | A4 A8 B4 | A4 G4 A4 A4- | A2 F2 B6 A2 G2 F2 | E4 F8 E4 | F4 A8 B4 | %99
w: a _ ter- ra|_ _ i- no-|pem et de|ster- co- re e-|* * * * ri- *|gens pau- pe-|rem, et de|
 A4 G4 A4 A4- | A2 F2 B6 A2 G2 F2 | E4 F8 E4 | F16 || z16 | z8 F8- | F16 | B12 A4 | G8 F4 F4 | %108
w: ster- co- re e-|* * * * ri- *|gens pau- pe-|rem.||Ut|_|col- lo-|cet e- um|
 G8 G8 | A16- | A16 | z16 | z8 z4 A4- | A4 A8 A4- | A4 A4 G4 G4 | G4 G4 B8 | A16 | z16 | %118
w: Do- mi-|nus|_||cum|_ prin- ci-|* pi- bus po-|pu- li su-|i,||
 z4 B6 A2 G2 F2 | E6 F2 G2 A2 G4- | G2 F2 F8 E4 | F8 z8 | z16 | z16 | z16 | c8 A4 G4 | c8 G6 F2 | %127
w: su- * * *|||i.||||Qui ha- bi-|ta- re _|
 E2 DC c8 B4 | A4 G4 F4 E4 | F8 F8 | z16 | z16 | z8 c4 d4- | d4 e4 f8 | e6 dc e4 d4- | %135
w: fa- * * * cit|ste- ri- lem in|do- mo,|||ma- trem|_ fi- li-|o- * * * *|
 d2 c2 c8 =B4 | c8 z8 | z16 | z16 | z16 | z16 | z8 z4 A4 | B8 A6 GF | A4 G6 F2 F4- | F4 E4 F4 z4 | %145
w: |rum|||||ma-|trem fi- * *|* li- * o-|* * rum,|
 F4 B6 A2 G4 | c6 B2 A2 G2 F4 | G4 G6 F2 E2 D2 | C4 F8 E4 | F8 z4 A4 | G4 A4 z4 A4 | %151
w: fi- li- * *|o- * * * *|rum lae- * * *|* tan- *|tem, lae-|tan- tem, lae|
 G4 A4 F2 G2 A2 F2 | B4 A8 A2 GA | B4 A8 A2 GA | B4 A4 G4 B4 | A4 G6 F2 F4 | E4 F8 E4 | %157
w: tan- tem, lae- * * *|tan- tem, lae- * *|tan- tem, lae- * *|tan- * * *||tem, lae- *|
 D6 E2 F2 G2 A4- | A4 G2 F2 E2 D2 G4- | G2 F2 F8 E4 | F8 z8 | z8 z4 C4 | D4 E4 F4 G4 | z16 | %164
w: tan- * * * *|||tem.|Glo-|ri- a Pa- tri,||
 z8 F4 G4 | A4 B4 c4 d4- | d2 c2 c8 =B4 | c16- | c8 z8 | z16 | c8 c4 c4 | d6 c2 B2 A2 c4- | %172
w: Glo- ri-|a Pa- tri et|_ _ Fi- li-|o,|_||et Spi- ri-|tu- * i _ San-|
 c2 B2 A2 G2 A4 B4- | B2 A2 A8 G4 | A6 A2 A4 A4 | B6 A2 G2 F2 A4- | A2 G2 F2 E2 F6 c2 | c4 c4 d8 | %178
w: * * * * cto, San-||cto et Spi- ri-|tu- * i _ San-|* * * * cto, et|Spi- ri- tu-|
 B8 c8 | A16 | F8 A8 | G6 A2 B2 c2 d4- | d2 c2 c8 =B4 | c8 z8 | z4 c4 B6 AG | F4 G8 ^F4 | G12 B4- | %187
w: i San-|cto.|Si- cut|e- * * * *||rat,|si- cut _ _|_ e- *|rat, e-|
 B4 A8 G4 | A4 z4 A4 A4 | A4 A4 A4 A4 | A4 A4 B8 | A8 z4 A4- | A4 A4 A4 A4 | A8 A8 | A8 B8 | %195
w: |rat in prin-|ci- pi- o et|nunc et sem-|per, et|_ in sae- cu-|la sae-|cu- lo-|
 B8 A8- | A4 F4 F8- | F16 || c8 c4 c4 | d8 c4 c4 |"^rit." B8 B8 | A16- | A16 |] %203
w: rum. A-|* * men.|_|Lau- da- te|pu- e- ri|Do- mi-|num.|_|
V:2
 z8 F,8- | F,8 A,8 | C8 C6 D2 | E4 F6 ED E4 | F8 z4 F4- | F4 F8 F4 | G12 F4 | F8 z4 F4- | %8
w: Lau-|* da-|te pu- e-|ri Do- * * mi-|num, pu-|* e- ri|Do- mi-|num, lau-|
 F4 F8 F4 | F8 G8 | E12 D4 | D16 | F8 F8 | E8 F4 F4 | F4 G8 F4 | D8 E8- | E8 z8 | F8 F4 F4 | %18
w: * da- te|no- men|Do- mi-|ni.|Sit no-|men Do- mi-|ni be- ne-|di- ctum|_|ex hoc nunc|
 F4 F4 F8 | E8 D8 | C4 =B,4 C6 _B,2 | A,2 G,2 F,8 F4- | F4 E4 F4 F4 | D4 B,4 C8 | B,8 z8 | %25
w: et us- que|in sae-|cu- lum, sae- *||* cu- lum. A|so- lis or-|tu|
 z4 F4 E4 F4 | G16 | F16 | z16 | z16 | z8 A8 | A4 A4 G8 | F4 E4 F8 | F8 E8 | z16 | z8 F8 | %36
w: et ad oc-|ca-|sum|||lau-|da- bi- le|no- men Do-|mi- ni,||lau-|
 F4 F4 E4 D4- | D4 C4 C4 =B,4 | C8 z4 C4 | C4 C4 A,8 | B,8 C8 | C8 z8 | z8 C6 C2 | C4 C4 D8 | %44
w: da- bi- le no-|* men Do- mi-|ni. Ex-|cel- sus su-|per o-|mnes|su- per|o- mnes gen-|
 E8 C6 C2 | A,16 | z16 | z16 | F8 F4 F4 | E8 D8 | F6 F2 C8 | z8 z4 C4- | C4 C4 C4 B,4- | %53
w: tes Do- mi-|nus,|||et su- per|cae- los|glo- ri- a,|et|_ su- per cae-|
 B,4 A,8 C4- | C2 C2 G,4 D8 | D4 A,6 B,2 C4- | C2 D2 E4 F4 G4- | G2 F2 F8 E4 | F4 E4 F8 | %59
w: * los glo-|* ri- a, su-|per cae- * *|* * * los glo-|* * * ri-|a e- jus,|
 C6 D2 E2 F2 G4- | G4 ^F4 G4 G,4- | G,4 A,4 G,8 | z8 D8 | F12 F4 | F8 F8 | F8 G8 | %66
w: glo- * * * *|* ri- a e-|* * jus.|Quis|si- cut|Do- mi-|nus De-|
 F2 E2 D6 C2 B,2 A,2 | B,8 A,8- | A,8 z8 | z16 | z16 | z16 | z16 | z8 F8 | F8 D6 C2 | %75
w: * * us _ _ _|no- ster,|_|||||qui|in al- *|
 C12 =B,2 A,2 | =B,8 C6 D2 | E4 C8 B,2 A,2 | G,8 F,8 | z8 C4 C4 | A,4 A,4 F,8- | F,8 G,4 G,4 | %82
w: tis ha- *|bi- tat, _|_ ha- * *|bi- tat|et hu-|mi- li- a|_ re- spi-|
 G,4 A,8 G,2 F,2 | G,8 A,6 B,2 | C4 D6 C2 B,2 A,2 | B,4 B,4 C8- | C4 A,4 A,8- | A,8 z4 C4- | %88
w: cit in _ _|_ cae- *|* lo _ _ _|_ et in|_ ter- ra?|_ Su-|
 C4 D8 E4- | E4 E4 F4 E4 | F4 G6 E2 F4- | F4 E4 F8 | C6 D2 E4 F4- | F2 E2 C4 D4 E4 | C4 F8 F4 | %95
w: * sci- tans|_ a ter- *|ra i- * *|* no- pem,|a _ ter- ra|_ _ _ i- no-|pem et de|
 E4 D4 E4 F4- | F4 F6 E2 D4 | C4 =B,4 C8 | C4 F8 F4 | F4 E4 F4 F4- | F4 F6 E2 D4 | C4 =B,4 C8 | %102
w: ster- co- re e-|* ri- * *|gens pau- pe-|rem, et de|ster- co- re e-|* ri- * *|gens pau- pe-|
 C16 || z8 C8 | F12 E4 | D12 C4 | B,8 C4 F,4 | B,6 C2 D2 E2 F4- | F4 E2 D2 E8 | F16 | z4 E8 E4 | %111
w: rem.|Ut|col- lo-|cet _|_ e- um|Do- * * * *|* * * mi-|nus|cum prin-|
 E4 E4 D4 D4 | D4 D4 F8 | E8 z4 E4- | E4 E4 E4 E4 | D4 D4 D4 D4 | F8 E4 C2 D2 | E2 F2 G8 F4 | %118
w: ci- pi- bus po-|pu- li su-|i, cum|_ prin- ci- pi-|bus po- pu- li|su- i, su- *||
 E4 D2 C2 D8 | C16- | C16 | C8 z4 G4- | G4 F4 E4 G4- | G4 D4 F4 F4 | E4 D4 C4 =B,4 | C16- | C16 | %127
w: |||i. Qui|_ ha- bi- ta-|* re fa- cit|ste- ri- lem in|do-||
 C16- | C16 | A,4 F,6 G,2 A,2 B,2 | C4 D4 E4 D4 | E2 D2 E2 D2 E2 D2 C2 B,2 | A,4 F,4 G,4 A,4- | %133
w: mo,|_|* ma- * * *|* trem fi- li-|o- * * * rum _ lae- *|tan- * tem, lae-|
 A,2 G,2 C8 =B,4 | C8 z8 | z4 C4 F8 | E12 D2 C2 | D4 E4 F4 C4- | C2 D2 E2 F2 G2 A2 B4- | B4 A8 G4 | %140
w: * * * tan-|tem,|ma- trem|fi- * *|* li- o- *||* * rum|
 A2 G2 F2 E2 D2 C2 B,2 A,2 | G,2 F,2 C4 B,2 A,2 G,2 F,2 | G,8 F,8 | z16 | z4 C8 F4- | %145
w: lae- * * * * * * *|* * * tan- * * *|* tem,||fi- li-|
 F2 E2 D4 G6 F2 | E2 D2 C4 F6 E2 | D2 C2 B,2 A,2 G,4 C4- | C4 =B,4 C6 _B,2 | A,2 G,2 F,4 z4 F4 | %150
w: * * * o- *|* * * rum _|_ _ _ _ _ lae-|* tan- tem, _|_ _ _ lae-|
 E4 F4 z4 F4 | E4 F4 z4 F4 | F4 F8 F4 | F4 F12 | F4 F4 E4 F4 | E8 D8 | C4 =B,4 C8 | F,4 F8 F4- | %158
w: tan- tem, lae|tan- tem, lae-|tan- tem, lae-|tan- tem,|lae- tan- * *||tem, lae- tan-|tem, lae- tan-|
 F8 G4 _E4- | E2 D2 C2 B,2 C8 | A,8 z4 C4- | C4 D4 E4 F4 | G4 A8 E4- | E2 F2 G2 E2 F4 E4 | %164
w: * tem, lae-|* * * * tan-|tem. Glo-|* ri- a Pa-|tri et Fi-||
 F4 D4 C4 z4 | z16 | F8 F4 F4 | G8 E8 | F16 | D8 z8 | F8 F4 F4 | A6 G2 F2 E2 G4- | %172
w: * li- o,||et Spi- ri-|tu- i|San-|cto|et Spi- ri-|tu- * i _ San-|
 G2 F2 E2 D2 E4 F4- | F2 E2 E8 D4 | E4 F4 F4 F4 | G6 F2 E2 D2 F4- | F2 E2 D2 C2 D4 C4- | %177
w: * * * * cto, San-||cto et Spi- ri-|tu- * i _ San-|* * * * cto, et|
 C4 F6 E2 D2 C2 | D2 E2 F6 ED E4 | F8 z8 | C8 F8 | E6 F2 G2 E2 F4- | F2 E2 C4 D8 | C16 | z16 | %185
w: _ Spi- * ri- *|tu- i San- * * *|cto.|Si- cut|e- * * * *||rat,||
 z4 G4 E4 C4 | D8 C4 G4- | G2 F2 F8 E4 | F4 z4 F4 F4 | F4 F4 F4 F4 | F4 F4 G8 | F8 z4 F4- | %192
w: si- cut _|e- rat, e-||rat in prin-|ci- pi- o et|nunc et sem-|per, et|
 F4 F4 F4 F4 | F8 F8 | F8 F8 | G8 E8- | E4 D4 D8- | D16 || A8 A4 A4 | B8 A8 | G8 G4 G4 | F16- | %202
w: _ in sae- cu-|la sae-|cu- lo-|rum. A-|* * men.|_|Lau- da- te|pu- e-|ri Do- mi-|num.|
 F16 |] %203
w: _|
V:3
 z16 | F16 | A8 c8- | c8 z8 | c16 | c8 c8 | d12 c4 | c16 | c8 c4 c4 | d8 B8 | c12 A4 | A16 | %12
w: |Lau-|da- te|_|pu-|e- ri|Do- mi-|num,|lau- da- te|no- men|Do- mi-|ni.|
 d8 c8 | B8 c4 c4 | c4 d8 c4 | =B8 c8- | c8 c8 | c4 c4 c4 c4 | c8 d8 | c6 B2 A2 G2 A2 B2 | %20
w: Sit no-|men Do- mi-|ni be- ne-|di- ctum|_ ex|hoc nunc et us-|que in|sae- * * * cu- *|
 G4 F4 G8 | F16 | z16 | B8 A4 F4 | G8 F8 | z4 c4 c4 c4 | _e16 | c16 | f8 f4 f4 | e4 a4 g4 f4- | %30
w: lum, sae- cu-|lum.||A so- lis|or- tu|et ad oc-|ca-|sum|lau- da- bi-|le no- men Do-|
 f4 e4 f8- | f8 z8 | z8 d8 | d4 d4 c8 | B4 A4 G8 | G8 F8 | F8 B8 | A4 G4 A4 F4 | G4 G4 F8- | %39
w: * mi- ni,|_|lau-|da- bi- le|no- men Do-|mi- ni,|lau- da-|bi- le no- men|Do- mi- ni.|
 F8 z8 | z16 | z4 f4 f4 f4 | d8 e8 | f8 f8 | z16 | f6 f2 f4 f4 | g8 a8 | f6 f2 d8- | d8 z8 | %49
w: _||Ex- cel- sus|su- per|o- mnes||su- per o- mnes|gen- tes|Do- mi- nus,|_|
 z8 f8 | f4 f4 e8 | d8 f6 f2 | c8 z8 | z4 f8 f4 | e4 d4 g4 g4 | f8 F4 G4 | A4 B4 c4 d4- | %57
w: et|su- per cae-|los glo- ri-|a,|su- per|cae- los glo- ri-|a, su- per|cae- * los glo-|
 d2 c2 c8 B4 | c8 z4 c4- | c2 d2 e2 f2 g8 | c8 d8 | c16 | c8 B6 AG | F16- | F16 | z16 | z16 | %67
w: * * * ri-|a, glo-||ri- *|a|e- jus. _ _|_||||
 d8 f8- | f4 f4 f8 | f8 f8 | g8 f4 e4- | e2 d2 d8 ^c4 | d16 | z8 A8 | A8 A8 | G8 A8 | F8 (G8 | %77
w: Quis si-|* cut Do-|mi- nus|De- us no-||ster,|qui|in al-|tis ha-|bi- tat,|
 c8) z8 | c4 c4 A4 A4 | F16 | c8 c8 | d4 d4 e6 d2 | e4 f8 e2 d2 | e8 c8 | f4 f8 e2 d2 | e8 f8 | %86
w: _|et hu- mi- li-|a|re- spi-|cit in cae- *|* lo- * *|* et|in ter- * *|ra, in|
 f12 e2 d2 | c8 z4 F4 | A8 B8 | c8 c8 | c4 d6 c2 c4- | c4 B4 c4 F4- | F2 G2 A2 B2 c4 d4- | %93
w: ter- * *|ra? Su-|sci- tans|a ter-|ra i- * *|* no- pem, a|_ _ _ _ ter- ra|
 d2 c2 A4 B4 c4 | F4 d8 d4 | c4 B4 A4 c4- | c2 A2 d6 c2 B2 A2 | G4 F4 G8 | F4 c8 d4 | c4 B4 A6 B2 | %100
w: _ _ _ i- no-|pem et de|ster- co- re e-|* * * * ri- *|gens pau- pe-|rem, et de-|ster- co- re _|
 c4 d6 c2 B2 A2 | G4 F4 G8 | F16 || c8 f8- | f4 e4 d4 c4 | B6 c2 d2 e2 f4- | f2 e2 e2 de f4 d4- | %107
w: _ e- * ri- *|gens pau- pe-|rem.|Ut col-|* lo- cet _|e- * * * *|* * * * * um Do-|
 d2 c2 c6 B2 B2 A2 | c6 BA G8 | F16 | z4 c8 c4 | B16 | G8 F8 | z4 c4 c4 c4 | c4 c4 B4 B4 | %115
w: * * * * mi- *|nus _ _ _|_|cum prin-|ci-|pi- bus,|cum prin- ci-|pi- bus po- pu-|
 B12 d4- | d4 c8 B2 A2 | B6 c2 d2 _e2 d4- | d2 c2 c8 =B4 | c2 G2 c8 _B4 | A4 G2 F2 G8 | F8 z8 | %122
w: li su-||||||i.|
 z16 | z16 | z16 | z8 c8 | A4 G4 c8 | G4 e8 d4 | c4 B4 A4 G4 | F8 F8 | z16 | z16 | z16 | z8 d8 | %134
w: |||Qui|ha- bi- ta-|re fa- cit|ste- ri- lem in|do- mo,||||ma-|
 g8 g8 | f4 e4 d8 | c16 | z16 | z16 | z16 | z16 | z16 | G8 c8 | c8 B4 A4 | G8 F8 | B6 A2 G4 c4- | %146
w: trem fi-|li- * o-|rum,||||||ma- trem|fi- li- *|o- rum|lae- * * tan-|
 c2 B2 A2 G2 F4 B4- | B2 A2 G4 c6 B2 | A2 G2 F4 G8 | F6 G2 A2 B2 c4 | B4 c4 z4 c4 | %151
w: * * * * tem, lae-|* * * tan- *|* * * tem,|lae- * * * *|tan- tem, lae-|
 B4 c4 A2 B2 c2 A2 | d4 c8 c2 Bc | d4 c8 c2 Bc | d4 c8 d4 | c8 A4 B4 | G4 F4 G6 A2 | %157
w: tan- tem, lae- * * *|tan- tem, lae- * *|tan- tem, lae- * *|tan- * *||tem, lae- tan- *|
 B2 c2 d6 c2 c4- | c4 B2 A2 c4 B4- | B2 A2 G2 F2 G8 | z4 F8 G4 | A8 B4 c4 | z16 | z16 | %164
w: |* tem, _ lae- tan-|* * * * tem.|Glo- ri-|a Pa- tri,|||
 F4 G4 A4 B4 | c4 d4 e4 f4- | f2 e2 d2 c2 d8 | c8 c8 | c4 c4 d8 | B8 c8 | A4 c4 c4 c4 | %171
w: Glo- ri- a Pa-|tri et Fi- *|* * * * li-|o, et|Spi- ri- tu-|i San-|cto, et Spi- ri-|
 f6 e2 d2 c2 e4- | e2 d2 c2 B2 c4 d4- | d2 c2 B2 A2 B8 | A4 c4 c4 c4 | d6 c2 B2 A2 c4- | %176
w: tu- * i _ San-|* * * * cto, San-||cto et Spi- ri-|tu- * i _ San-|
 c2 B2 A2 G2 A4 F4- | F2 E2 F2 G2 A4 B4- | B2 A2 F4 G8 | F16- | F16 | z16 | z16 | z8 z4 f4- | %184
w: * * * * cto, et|_ _ _ _ Spi- ri-|* tu- i San-|cto.|_|||si-|
 f4 e6 d2 d4- | d4 G4 A8 | G8 c4 d4- | d2 c2 c8 B4 | c4 z4 c4 c4 | c4 c4 c4 c4 | c4 c4 d8 | c16 | %192
w: * cut _ e-||rat, si- cut|_ _ e- *|rat in prin-|ci- pi- o et|nunc et sem-|per,|
 z4 c8 c4 | c4 c4 c4 c4- | c4 c4 d8 | B8 c8- | c4 A4 A8- | A16 || f8 f4 f4 | f8 f8 | d16 | d8 d8 | %202
w: et in|sae- cu- la sae-|* cu- lo-|rum. A-|* * men.|_|Lau- da- te|pu- e-|ri|Do- mi-|
 c16 |] %203
w: num.|
V:4
 z16 | z8 F,8- | F,8 A,8 | C16 | F,16 | F,8 F,8 | B,12 F,4 | F,16 | F,8 F,4 F,4 | B,8 G,8 | %10
w: |Lau-|* da-|te|pu-|e- ri|Do- mi-|num,|lau- da- te|no- men|
 A,12 D,4 | D,16 | B,,8 F,8 | G,8 F,4 F,4 | F,4 B,8 F,4 | G,8 C,8- | C,8 F,8 | F,4 F,4 F,4 F,4 | %18
w: Do- mi-|ni.|Sit no-|men Do- mi-|ni be- ne-|di- ctum|_ ex|hoc nunc et us-|
 F,2 E,2 D,2 C,2 (B,,8 | C,8) D,4 B,,4 | C,4 D,4 C,8 | z4 C4 A,4 F,4 | G,8 F,8 | z16 | z16 | %25
w: que _ _ _ in|_ sae- *|* cu- lum,|A so- lis|or- tu|||
 z4 F,4 C,4 F,4 | _E,16 | F,16 | D8 D4 D4 | C8 B,4 A,4 | G,4 G,4 F,8- | F,8 z8 | z16 | z16 | z16 | %35
w: et ad oc-|ca-|sum|lau- da- bi-|le no- men|Do- mi- ni,|_||||
 z8 A,8 | A,4 A,4 G,8 | F,4 E,4 D,4 D,4 | C,8 z8 | z4 F,4 F,4 F,4 | D,8 E,8 | F,8 F,8 | z16 | %43
w: lau-|da- bi- le|no- men Do- mi-|ni.|Ex- cel sus|su- per|o- mnes||
 F,6 F,2 F,4 F,4 | G,8 A,8 | F,6 F,2 D,8 | z16 | z8 B,8 | B,4 B,4 A,8 | G,8 B,6 B,2 | F,8 z8 | %51
w: su- per o- mnes|gen- tes|Do- mi- nus,||et|su- per cae-|los glo- ri-|a,|
 z8 F,8 | F,4 F,4 E,8 | D,8 F,6 F,2 | C,4 G,8 G,4 | D,4 F,6 F,2 C,4 | F,4 G,4 A,4 B,4- | %57
w: et|su- per cae-|los glo- ri-|a, glo- ri-|a, glo- ri- a,|e- * jus, glo-|
 B,2 A,2 G,2 F,2 G,8 | F,4 C,4 F,6 G,2 | A,2 B,2 C8 G,4 | A,8 G,8 | C,4 F,8 E,4 | (F,8 B,,8) | %63
w: |ri- a, glo- *|* * * ri-|a e-|jus, e- *|jus. _|
 z16 | z16 | z16 | z16 | z8 D,8 | F,6 G,2 A,2 F,2 B,4 | A,4 B,6 C2 D4 | G,4 B,4 A,4 G,4- | %71
w: ||||Quis|si- * * * *|cut Do- * *|* mi- nus De-|
 G,2 F,2 E,2 D,2 E,8 | D,16 | z8 F,8 | F,8 F,8 | E,8 D,8 | D,8 C,8- | C,16- | C,8 C4 C4 | %79
w: * * us _ no-|ster,|qui|in al-|tis ha-|bi- tat,|_|* et hu-|
 A,4 A,4 F,8 | F,12 E,4 | D,8 C,8- | C,8 C,8- | C,8 F,8 | F,8 G,4 G,4 | G,8 F,8- | F,16- | F,8 z8 | %88
w: mi- li- a|re- *|spi- cit|_ in|_ cae-|lo et in|ter- ra?|_||
 F,8 G,8 | A,8 A,8 | A,4 B,4 F,4 A,4 | G,8 F,8- | F,8 z8 | z16 | z16 | z8 z4 F,4- | F,4 B,,8 B,,4 | %97
w: Su- sci-|tans a|ter- ra i- *|no- pem,|_|||e-|* ri- gens|
 C,4 D,4 C,8 | z4 F,8 B,,4 | F,4 G,4 D,4 F,4- | F,4 B,,8 B,,4 | C,4 D,4 C,8 | F,16 || F,16- | %104
w: pau- pe- rem,|et de|ster- co- re e|* ri- gens|pau- * pe-|rem.|Ut|
 F,16 | B,12 A,4 | G,8 F,8 | E,8 D,8 | C,8 C,8 | F,8 z4 A,4- | A,4 A,4 A,4 A,4 | G,4 G,4 G,4 G,4 | %112
w: _|col- lo-|cet _|e- um|Do- mi-|nus cum|_ prin- ci- pi-|bus po- pu- li|
 B,8 A,8- | A,16 | z8 G,8- | G,4 G,4 G,4 G,4 | F,4 F,4 A,4 A,4 | G,16- | G,16 | C,16- | C,16 | %121
w: su- i,|_|cum|_ prin- ci- pi-|bus po- pu- li|su-||i.|_|
 z8 C8 | B,4 A,4 C8 | G,4 B,8 A,4 | G,4 F,4 E,4 D,4 | C,16- | C,16 | C,16- | C,16 | %129
w: Qui|ha- bi- ta-|re fa- cit|ste- ri- lem in|do-||mo,|_|
 F,6 G,2 A,2 B,2 C4 | F,8 G,8- | G,16 | F,4 D,4 E,4 F,4- | F,2 E,2 D,2 C,2 D,8 | C,8 z8 | z16 | %136
w: ma- * * * *|trem fi-||li- o- rum lae-|* * * * tan-|tem,||
 z4 C8 B,2 A,2 | B,4 C4 F,6 G,2 | A,2 B,2 C6 A,2 D4- | D2 C2 A,6 B,2 C4 | F,8 G,6 F,2 | %141
w: fi- * *|* li- o- *|||rum lae _|
 E,2 D,2 C,4 D,2 C,2 F,4- | F,4 E,4 F,8 | z16 | C,8 F,6 E,2 | D,4 G,6 F,2 E,2 D,2 | %146
w: _ _ _ tan- * *|* * tem,||fi- li- *|* o- * * *|
 C,4 F,6 E,2 D,4 | G,6 F,2 E,2 D,2 C,4 | F,4 D,4 C,8 | C6 B,2 A,2 G,2 F,4 | G,4 F,4 z4 F,4 | %151
w: rum lae- * *|tan- * * * *|* * tem,|lae- * * * *|tan- tem, lae|
 G,4 F,4 z4 F,4 | B,,4 F,12 | B,,4 F,12 | B,,4 F,4 C,4 B,,4 | C,8 D,4 B,,4 | C,4 D,4 C,8 | %157
w: tan- tem, lae-|tan- tem,|lae- tan-|tem, lae- tan- *||* tem, lae-|
 B,,6 C,2 D,2 E,2 F,4- | F,2 E,2 D,4 C,4 _E,4- | E,4 F,4 C,8 | F,8 z8 | F,8 G,4 A,4 | %162
w: tan- * * * *|* * * tem, lae-|* * tan-|tem.|Glo- ri- a|
 B,4 C4 D4 C4- | C4 B,2 A,2 D4 C4- | C4 =B,4 C4 z4 | z16 | z16 | z16 | F,8 F,4 F,4 | G,8 E,8 | %170
w: Pa- tri et Fi-||* li- o,||||et Spi- ri-|tu- i|
 F,16 | D,8 z8 | z16 | z16 | z4 A,4 A,4 A,4 | G,12 F,4- | F,8 D,4 A,4- | %177
w: San-|cto,|||et Spi- ri-|tu- i|_ San- *|
 A,2 G,2 F,2 E,2 D,2 C,2 B,,4- | B,,2 C,2 D,4 C,8 | F,16- | F,16 | z16 | z16 | z8 F,8 | %184
w: ||cto.|_|||si-|
 A,8 G,6 A,2 | B,2 C2 D6 C2 C4- | C4 =B,4 C4 _B,4- | B,2 A,2 F,4 G,8 | F,4 z4 F,4 F,4 | %189
w: cut e- *||* * rat, e-||rat in prin-|
 F,4 F,4 F,4 F,4 | F,4 F,4 B,8 | F,16 | z4 F,8 F,4 | F,4 F,4 F,4 F,4- | F,4 F,4 B,8 | G,8 A,8- | %196
w: ci- pi- o et|nunc et sem-|per,|et in|sae- cu- la sae-|* cu- lo-|rum. A-|
 A,4 D,4 D,8- | D,16 || F,8 F,4 F,4 | B,,8 F,8 | G,16 | D,6 C,2 D,4 E,4 | F,16 |] %203
w: * * men.|_|Lau- da- te|pu- e-|ri|Do- * * mi-|num.|

